X: 37962
T: Spanish Point
R: waltz
M: 3/4
K: Dmajor
de|f4 ad|e4 dc|B3B AG|F3A DE|F3F GA|c4 dA|B4 fd|e4 de|
f4 ad|e4 dc|B3B AG|F3A DE|F3D Ag|f4 ad|e4 dc|d4:|
|:fd|e4 Ag|f3A dG|B4 AE|F4 FG|A4 fA|B4 dg|f4 af|e4 de|
f4 ad|e4 dc|B3B AG|F3A DE|F3D Ag|f4 ad|e4 dc|d4:|

